X: 5879
T: Calum Sgaire
R: waltz
M: 3/4
K: Bminor
A,2|D3 E F2|FE-E2 FA|dc B2 d2|B/A/F-F3 B/A/|
F2 D2-DE|F/B/A- A2 z F/E/|F2 B,3 A,|B,4 A,>B,|
D3 E F2|FE E3 F/A/|dc B2 d2|B/A/F-F3 B/A/|
F2 D2-DE|F>B A3 F/E/|F2 B,3 C|B,4||

